X:1
T:Muncy
L:1/8
M:6/8
I:linebreak $
K:C
V:1 treble 
V:1
 G, | C>DC EDC | G>AG GFD | _B,2 C D2 B, | _B,>DF FDG, | G2 C EDC | G2 C C/D/EF |$ GAG FEF | %8
 G2 C C2 || G{AB} | c3 e>fg | c3 e>fg | _B3{B} ^def | _B3 ^d>ed | c2 d e2 f | gec e2 g |$ gag fef | %17
 g2 c c2 :| %18
